frontend/public/svg/arrows/arrow-square-down.svg

<svg width="153" height="149" viewBox="0 0 153 149" fill="none" xmlns="http://www.w3.org/2000/svg">
<path d="M152.307 102.477C151.567 90.7833 150.403 65.1442 151.302 51.8081C151.621 47.066 151.533 42.2255 151.448 37.5406L151.431 36.5279C151.407 29.2181 150.2 21.9605 147.855 15.0367C145.438 8.13796 140.746 3.94459 133.912 2.57087C129.63 1.6801 125.285 1.12973 120.916 0.924818C112.754 0.592055 104.452 0.406975 96.4222 0.227138C93.1637 0.154941 89.9052 0.0791981 86.6467 0L86.3232 0.0931788L83.5167 0.101752C81.4396 0.101752 79.3612 0.101752 77.2815 0.101752L73.8573 0.0958228C60.3571 0.0728509 46.3935 0.0407346 32.7706 2.1758C28.0298 2.91878 22.4936 3.95579 17.3703 6.01472C7.1524 10.1214 1.63851 17.6922 0.982174 28.5166C0.55621 35.5394 0.878468 42.618 1.19088 49.4623C1.25127 50.7828 1.30946 52.1034 1.36546 53.4239C1.55055 57.843 1.7442 64.0914 1.94897 70.706C2.2627 80.8221 2.6184 92.2883 3.01024 99.1648C3.40404 106.103 3.97114 115.23 4.82766 124.303C6.06552 137.413 16.6174 146.902 30.4905 147.379C40.8383 147.735 51.362 147.884 61.5444 148.028H61.6442C64.5517 148.069 67.5079 148.044 70.365 148.02C75.067 147.979 79.9291 147.939 84.6915 148.191C87.5794 148.344 90.5146 148.421 93.5521 148.421C102.973 148.348 112.382 147.755 121.736 146.643C131.34 145.582 138.563 142.762 144.467 137.771C149.303 133.682 151.66 128.946 151.672 123.29C151.677 121.436 151.714 119.557 151.784 117.705C151.845 116.073 151.956 114.408 152.065 112.799C152.368 109.367 152.449 105.919 152.307 102.477ZM134.876 136.584L134.726 136.666C130.5 138.985 125.842 139.788 121.433 140.412C106.896 142.47 92.4534 142.363 78.9079 142.079C71.5477 141.925 64.0635 141.824 56.826 141.726C50.4851 141.641 43.929 141.553 37.4818 141.429C34.4855 141.393 31.4961 141.137 28.5372 140.664C17.7989 138.875 11.8597 131.896 11.3628 120.483C11.0005 112.181 10.6658 100.57 10.3422 89.3421C10.0423 78.947 9.73246 68.1981 9.40889 60.4382C9.3065 57.9769 9.16539 55.477 9.02952 53.0591C8.81621 49.2661 8.59566 45.3431 8.51756 41.4852C8.42502 36.9105 8.67836 32.236 8.94484 27.8405C9.34192 21.3139 13.129 16.6828 20.2023 14.0719C24.4795 12.5701 28.9005 11.5144 33.3948 10.9215C45.3979 9.13098 57.6458 8.82843 69.6857 8.82843C72.7842 8.82843 75.869 8.84808 78.9322 8.86777L80.909 8.88091C81.6842 8.88616 82.4587 8.88419 83.2325 8.88091H84.6593L84.6653 8.62365C87.9789 8.70853 91.2936 8.79119 94.6094 8.8717C104.202 9.10798 114.122 9.3522 123.876 9.67249C126.405 9.8254 128.918 10.1743 131.393 10.716L131.819 10.7981C136.047 11.606 138.875 14.215 140.224 18.5514C142.228 25.1822 143.23 32.0748 143.198 39.0015C143.22 42.1553 143.175 45.3681 143.132 48.4686C143.075 52.6108 143.015 56.8927 143.111 61.1044L143.154 62.9474C143.356 71.7594 143.776 90.0955 144.278 97.814C144.773 105.428 145.075 115.47 142.994 125.603L142.973 125.678C142.936 125.781 142.92 125.891 142.926 126.001C143.423 131.895 139.271 134.172 134.876 136.584Z" fill="black"/>
<path d="M103.956 89.0612C102.905 89.6342 101.915 90.3143 101.003 91.0906C100.789 91.2606 100.575 91.4299 100.36 91.596C97.2182 94.0323 94.0789 96.4708 90.9425 98.9115C87.2854 101.756 83.6267 104.596 79.9666 107.434C79.6411 107.668 79.2966 107.874 78.9368 108.05L78.6808 108.187C78.7578 106.619 78.836 105.076 78.9152 103.558C79.1068 99.8022 79.2879 96.2553 79.4258 92.6586C79.7178 85.0083 80.0014 73.8322 80.279 63.0237C80.514 53.7444 80.7385 44.9796 80.959 38.5422C80.9915 37.2788 80.9023 36.0152 80.6925 34.7689C80.3893 32.8655 79.4114 31.9014 77.783 31.9014C75.9643 31.9014 74.8622 32.9811 74.6811 34.9356C74.6312 35.4743 74.5791 36.014 74.5249 36.5549C74.3076 38.7726 74.0838 41.0652 74.0543 43.3302C73.9368 52.3674 73.8449 65.1587 73.757 77.5287C73.6914 87.1112 73.6257 96.1608 73.5502 103.096C73.5316 103.601 73.481 104.104 73.3986 104.602C73.3829 104.712 73.3671 104.825 73.3507 104.941L72.8702 104.498C72.3399 104.01 71.8996 103.604 71.4769 103.182C65.3735 97.1887 58.3768 92.1796 50.7366 88.3333L50.5029 88.2106C49.841 87.8301 49.1359 87.5302 48.4027 87.3173C47.9674 87.2463 47.5216 87.2764 47.0998 87.4053C46.9305 87.442 46.7611 87.4801 46.5957 87.5031L46.2505 87.5496L46.3161 87.8916C46.351 88.0912 46.3756 88.2926 46.3897 88.4948C46.3781 89.0107 46.5274 89.5175 46.8169 89.9446C47.2633 90.4182 47.7583 90.8434 48.2937 91.2133C48.6972 91.5001 49.0816 91.813 49.4443 92.1499C52.2617 94.9065 55.0734 97.6675 57.8795 100.433C61.5034 103.999 65.1332 107.558 68.7688 111.11C70.2906 112.692 71.9662 114.119 73.7708 115.369C74.7591 116.073 75.9316 116.474 77.1444 116.522C78.5771 116.522 79.9666 115.841 81.469 114.462C83.9926 112.14 86.7269 109.708 89.8274 107.028C92.0839 105.077 94.3489 103.135 96.6225 101.202C99.0851 99.1019 101.543 96.9935 103.995 94.877C104.981 94.0685 105.843 93.1206 106.555 92.0633C106.952 91.4293 107.002 90.0615 106.511 89.5311C106.162 89.2393 105.743 89.0427 105.295 88.9604C104.848 88.878 104.387 88.9127 103.956 89.0612Z" fill="black"/>
</svg>

<svg xmlns="http://www.w3.org/2000/svg" width="153" height="149" fill="none" viewBox="0 0 153 149"><path fill="#000" d="M152.307 102.477c-.74-11.694-1.904-37.333-1.005-50.669.319-4.742.231-9.583.146-14.267l-.017-1.013a67.7 67.7 0 0 0-3.576-21.491c-2.417-6.899-7.109-11.092-13.943-12.466A83 83 0 0 0 120.916.925C112.754.592 104.452.407 96.422.227Q91.535.12 86.647 0l-.324.093-2.806.009H77.28L73.857.096C60.357.073 46.394.04 32.771 2.176c-4.741.743-10.277 1.78-15.4 3.839C7.151 10.12 1.638 17.692.981 28.517c-.426 7.022-.104 14.101.209 20.945q.09 1.98.174 3.962c.186 4.419.38 10.667.584 17.282.314 10.116.67 21.582 1.061 28.459.394 6.938.961 16.065 1.818 25.138 1.238 13.11 11.79 22.599 25.663 23.076 10.347.356 20.871.505 31.053.649h.1c2.908.041 5.864.016 8.721-.008 4.702-.041 9.564-.081 14.327.171 2.887.153 5.823.23 8.86.23a256 256 0 0 0 28.184-1.778c9.604-1.061 16.827-3.881 22.731-8.872 4.836-4.089 7.193-8.825 7.205-14.481.005-1.854.042-3.733.112-5.585.061-1.632.172-3.297.281-4.906.303-3.432.384-6.88.242-10.322m-17.431 34.107-.15.082c-4.226 2.319-8.884 3.122-13.293 3.746-14.537 2.058-28.98 1.951-42.525 1.667-7.36-.154-14.844-.255-22.082-.353-6.34-.085-12.897-.173-19.344-.297a61 61 0 0 1-8.945-.765c-10.738-1.789-16.677-8.768-17.174-20.181-.362-8.302-.697-19.913-1.02-31.14-.3-10.396-.61-21.145-.934-28.905-.103-2.461-.244-4.961-.38-7.379-.213-3.793-.433-7.716-.511-11.574-.093-4.574.16-9.249.427-13.644.397-6.527 4.184-11.158 11.257-13.77a65.8 65.8 0 0 1 13.193-3.15c12.003-1.79 24.25-2.093 36.29-2.093 3.1 0 6.184.02 9.247.04l1.977.013q1.163.006 2.323 0h1.427l.006-.257q4.971.127 9.944.248c9.593.236 19.513.48 29.267.8 2.529.153 5.042.502 7.517 1.044l.426.082c4.228.808 7.056 3.417 8.405 7.753a69.6 69.6 0 0 1 2.974 20.45c.022 3.154-.023 6.367-.066 9.468-.057 4.142-.117 8.424-.021 12.635l.043 1.843c.202 8.812.622 27.149 1.124 34.867.495 7.614.797 17.656-1.284 27.789l-.021.075a.8.8 0 0 0-.047.323c.497 5.894-3.655 8.171-8.05 10.583"/><path fill="#000" d="M103.956 89.061a17.4 17.4 0 0 0-2.953 2.03q-.32.255-.643.505a6984 6984 0 0 0-9.418 7.316 9230 9230 0 0 1-10.975 8.522q-.49.351-1.03.616l-.256.137q.115-2.352.234-4.629c.192-3.756.373-7.303.51-10.9.293-7.65.576-18.826.854-29.634.235-9.28.46-18.044.68-24.482a19.7 19.7 0 0 0-.267-3.773c-.303-1.904-1.28-2.868-2.909-2.868-1.819 0-2.92 1.08-3.102 3.035q-.075.807-.156 1.619c-.217 2.218-.441 4.51-.47 6.775-.118 9.037-.21 21.829-.298 34.199-.066 9.582-.131 18.632-.207 25.567a12 12 0 0 1-.151 1.506l-.048.339-.48-.443a47 47 0 0 1-1.394-1.316 82.6 82.6 0 0 0-20.74-14.849l-.234-.122a9.6 9.6 0 0 0-2.1-.894 2.9 2.9 0 0 0-1.303.088c-.17.037-.339.075-.504.098l-.345.047.065.342q.053.3.074.603a2.5 2.5 0 0 0 .427 1.45 9.3 9.3 0 0 0 1.477 1.268q.606.431 1.15.937 4.227 4.134 8.435 8.283 5.436 5.349 10.89 10.677a33 33 0 0 0 5.002 4.259 6.24 6.24 0 0 0 3.373 1.153c1.433 0 2.823-.681 4.325-2.06a359 359 0 0 1 8.358-7.434q3.385-2.926 6.796-5.826 3.694-3.15 7.372-6.325a13.1 13.1 0 0 0 2.56-2.814c.397-.634.447-2.002-.044-2.532a2.64 2.64 0 0 0-2.555-.47"/></svg>
